Apricity Icons/apps/scalable/antimicro.svg

<?xml version="1.0" encoding="UTF-8" standalone="no"?>
<svg
   xmlns:dc="http://purl.org/dc/elements/1.1/"
   xmlns:cc="http://creativecommons.org/ns#"
   xmlns:rdf="http://www.w3.org/1999/02/22-rdf-syntax-ns#"
   xmlns:svg="http://www.w3.org/2000/svg"
   xmlns="http://www.w3.org/2000/svg"
   xmlns:xlink="http://www.w3.org/1999/xlink"
   xmlns:sodipodi="http://sodipodi.sourceforge.net/DTD/sodipodi-0.dtd"
   xmlns:inkscape="http://www.inkscape.org/namespaces/inkscape"
   viewBox="0 0 48 48"
   id="svg2"
   version="1.1"
   inkscape:version="0.48.5 r10040"
   width="100%"
   height="100%"
   sodipodi:docname="antimicro.svg">
  <metadata
     id="metadata73">
    <rdf:RDF>
      <cc:Work
         rdf:about="">
        <dc:format>image/svg+xml</dc:format>
        <dc:type
           rdf:resource="http://purl.org/dc/dcmitype/StillImage" />
        <dc:title></dc:title>
      </cc:Work>
    </rdf:RDF>
  </metadata>
  <sodipodi:namedview
     pagecolor="#ffffff"
     bordercolor="#666666"
     borderopacity="1"
     objecttolerance="10"
     gridtolerance="10"
     guidetolerance="10"
     inkscape:pageopacity="0"
     inkscape:pageshadow="2"
     inkscape:window-width="1910"
     inkscape:window-height="1027"
     id="namedview71"
     showgrid="true"
     inkscape:snap-nodes="true"
     inkscape:snap-bbox="true"
     showguides="true"
     inkscape:guide-bbox="true"
     inkscape:zoom="17.914894"
     inkscape:cx="26.028175"
     inkscape:cy="23.5"
     inkscape:window-x="0"
     inkscape:window-y="23"
     inkscape:window-maximized="1"
     inkscape:current-layer="svg2">
    <inkscape:grid
       type="xygrid"
       id="grid3050" />
  </sodipodi:namedview>
  <defs
     id="defs4">
    <linearGradient
       id="linearGradient3233">
      <stop
         style="stop-color:#ffa569;stop-opacity:1;"
         offset="0"
         id="stop3235" />
      <stop
         style="stop-color:#ff9955;stop-opacity:1;"
         offset="1"
         id="stop3237" />
    </linearGradient>
    <linearGradient
       id="linearGradient3225">
      <stop
         style="stop-color:#000000;stop-opacity:1;"
         offset="0"
         id="stop3227" />
      <stop
         style="stop-color:#000000;stop-opacity:0;"
         offset="1"
         id="stop3229" />
    </linearGradient>
    <linearGradient
       id="linearGradient3764"
       x1="1"
       x2="47"
       gradientUnits="userSpaceOnUse"
       gradientTransform="matrix(0,-1,1,0,-1.5e-6,47.999998)">
      <stop
         stop-color="#e4e4e4"
         stop-opacity="1"
         id="stop7" />
      <stop
         offset="1"
         stop-color="#eee"
         stop-opacity="1"
         id="stop9" />
    </linearGradient>
    <clipPath
       id="clipPath-464073363">
      <g
         transform="translate(0,-1004.3622)"
         id="g12">
        <path
           d="m -24 13 c 0 1.105 -0.672 2 -1.5 2 -0.828 0 -1.5 -0.895 -1.5 -2 0 -1.105 0.672 -2 1.5 -2 0.828 0 1.5 0.895 1.5 2 z"
           transform="matrix(15.333333,0,0,11.5,414.99999,878.8622)"
           fill="#1890d0"
           id="path14" />
      </g>
    </clipPath>
    <clipPath
       id="clipPath-475585691">
      <g
         transform="translate(0,-1004.3622)"
         id="g17">
        <path
           d="m -24 13 c 0 1.105 -0.672 2 -1.5 2 -0.828 0 -1.5 -0.895 -1.5 -2 0 -1.105 0.672 -2 1.5 -2 0.828 0 1.5 0.895 1.5 2 z"
           transform="matrix(15.333333,0,0,11.5,414.99999,878.8622)"
           fill="#1890d0"
           id="path19" />
      </g>
    </clipPath>
    <linearGradient
       inkscape:collect="always"
       xlink:href="#linearGradient3225"
       id="linearGradient3231"
       x1="7.7365441"
       y1="40.263454"
       x2="40.263454"
       y2="7.7365441"
       gradientUnits="userSpaceOnUse" />
    <linearGradient
       inkscape:collect="always"
       xlink:href="#linearGradient3233"
       id="linearGradient3239"
       x1="40.263454"
       y1="7.7365441"
       x2="7.7365441"
       y2="40.263454"
       gradientUnits="userSpaceOnUse" />
  </defs>
  <g
     id="g21">
    <path
       d="m 36.31 5 c 5.859 4.062 9.688 10.831 9.688 18.5 c 0 12.426 -10.07 22.5 -22.5 22.5 c -7.669 0 -14.438 -3.828 -18.5 -9.688 c 1.037 1.822 2.306 3.499 3.781 4.969 c 4.085 3.712 9.514 5.969 15.469 5.969 c 12.703 0 23 -10.298 23 -23 c 0 -5.954 -2.256 -11.384 -5.969 -15.469 c -1.469 -1.475 -3.147 -2.744 -4.969 -3.781 z m 4.969 3.781 c 3.854 4.113 6.219 9.637 6.219 15.719 c 0 12.703 -10.297 23 -23 23 c -6.081 0 -11.606 -2.364 -15.719 -6.219 c 4.16 4.144 9.883 6.719 16.219 6.719 c 12.703 0 23 -10.298 23 -23 c 0 -6.335 -2.575 -12.06 -6.719 -16.219 z"
       opacity="0.05"
       id="path23" />
    <path
       d="m 41.28 8.781 c 3.712 4.085 5.969 9.514 5.969 15.469 c 0 12.703 -10.297 23 -23 23 c -5.954 0 -11.384 -2.256 -15.469 -5.969 c 4.113 3.854 9.637 6.219 15.719 6.219 c 12.703 0 23 -10.298 23 -23 c 0 -6.081 -2.364 -11.606 -6.219 -15.719 z"
       opacity="0.1"
       id="path25" />
    <path
       d="m 31.25 2.375 c 8.615 3.154 14.75 11.417 14.75 21.13 c 0 12.426 -10.07 22.5 -22.5 22.5 c -9.708 0 -17.971 -6.135 -21.12 -14.75 a 23 23 0 0 0 44.875 -7 a 23 23 0 0 0 -16 -21.875 z"
       opacity="0.2"
       id="path27" />
  </g>
  <g
     id="g29"
     style="fill:#ff9955"
     transform="matrix(0.70710678,-0.70710678,0.70710678,0.70710678,-9.9411255,24)">
    <path
       d="M 24,1 C 36.703,1 47,11.297 47,24 47,36.703 36.703,47 24,47 11.297,47 1,36.703 1,24 1,11.297 11.297,1 24,1 z"
       id="path31"
       style="fill:url(#linearGradient3239);fill-opacity:1"
       inkscape:connector-curvature="0"
       inkscape:export-filename="/home/ismael/Imágenes/Iconos/numix-icon.png"
       inkscape:export-xdpi="300"
       inkscape:export-ydpi="300" />
  </g>
  <g
     id="g33" />
  <g
     id="g67">
    <path
       d="m 40.03 7.531 c 3.712 4.084 5.969 9.514 5.969 15.469 0 12.703 -10.297 23 -23 23 c -5.954 0 -11.384 -2.256 -15.469 -5.969 4.178 4.291 10.01 6.969 16.469 6.969 c 12.703 0 23 -10.298 23 -23 0 -6.462 -2.677 -12.291 -6.969 -16.469 z"
       opacity="0.1"
       id="path69" />
  </g>
  <path
     style="opacity:0.1;fill:#000000;stroke:none"
     d="M 29.09375 13 C 25.559291 13.021953 21.684589 15.127911 18.40625 18.40625 C 13.160908 23.651592 10.910243 30.410243 15.40625 34.90625 C 17.654254 37.154254 21.408247 37.904254 23.65625 35.65625 C 25.904254 33.408246 24.441636 31.588035 25.15625 29.65625 C 25.543803 28.608593 25.866381 27.446118 26.65625 26.65625 C 27.446118 25.866382 28.608593 25.543803 29.65625 25.15625 C 31.588035 24.441636 33.408246 25.904253 35.65625 23.65625 C 37.904253 21.408246 37.154254 17.654254 34.90625 15.40625 C 33.220247 13.720247 31.214425 12.986828 29.09375 13 z "
     id="path3182" />
  <g
     id="g3166">
    <path
       sodipodi:nodetypes="zcssasscz"
       inkscape:connector-curvature="0"
       id="path3054"
       d="m 17.407968,17.407969 c -5.245342,5.245342 -7.4933454,11.989353 -2.997338,16.48536 2.248004,2.248004 5.994677,2.997339 8.24268,0.749335 2.248004,-2.248004 0.784056,-4.062892 1.49867,-5.994677 0.387553,-1.047657 0.7088,-2.20747 1.498669,-2.997338 0.789868,-0.789868 1.949681,-1.111116 2.997338,-1.498669 1.931785,-0.714614 3.746673,0.749334 5.994677,-1.498669 2.248003,-2.248004 1.498669,-5.994677 -0.749335,-8.242681 C 29.397322,9.9146227 22.65331,12.162626 17.407968,17.407969 z"
       style="fill:#dbe2e3;stroke:none" />
    <path
       transform="matrix(0.79616799,-0.79616799,0.74377525,0.74377525,-15.48964,24.037759)"
       d="m 22,25.718233 a 4,4.2817664 0 1 1 -8,0 4,4.2817664 0 1 1 8,0 z"
       sodipodi:ry="4.2817664"
       sodipodi:rx="4"
       sodipodi:cy="25.718233"
       sodipodi:cx="18"
       id="path3066"
       style="fill:#374548;stroke:none"
       sodipodi:type="arc" />
    <path
       sodipodi:type="arc"
       style="fill:#374548;stroke:none"
       id="path3068"
       sodipodi:cx="18"
       sodipodi:cy="25.718233"
       sodipodi:rx="4"
       sodipodi:ry="4.2817664"
       d="m 22,25.718233 a 4,4.2817664 0 1 1 -8,0 4,4.2817664 0 1 1 8,0 z"
       transform="matrix(0.79616799,-0.79616799,0.74377525,0.74377525,-4.6242884,13.172408)" />
    <path
       inkscape:connector-curvature="0"
       id="rect3084"
       d="m 21.903976,23.402645 1.498669,-1.498669 c 0.415131,-0.415131 1.083538,-0.415131 1.498669,0 0.415132,0.415131 0.415132,1.083538 0,1.498669 l -1.498669,1.498669 c -0.415131,0.415132 -1.083538,0.415132 -1.498669,0 -0.415132,-0.415131 -0.415132,-1.083537 0,-1.498669 z"
       style="fill:#374548;stroke:none" />
    <path
       style="fill:#cccccc;stroke:none"
       d="m 14.597964,26.21265 0.749334,-0.749335 2.248004,2.248004 -0.749335,0.749335 z"
       id="use3109"
       inkscape:connector-curvature="0"
       inkscape:transform-center-y="-2.5"
       inkscape:tile-x0="16"
       inkscape:tile-y0="22"
       sodipodi:nodetypes="ccccc" />
    <path
       style="fill:#cccccc;stroke:none"
       d="m 20.59264,25.463315 0.749335,0.749335 -2.248004,2.248004 -0.749334,-0.749335 z"
       id="use3111"
       inkscape:connector-curvature="0"
       inkscape:transform-center-y="-2.5"
       inkscape:tile-x0="16"
       inkscape:tile-y0="22"
       sodipodi:nodetypes="ccccc" />
    <path
       style="fill:#cccccc;stroke:none"
       d="m 21.341975,31.457992 -0.749335,0.749334 -2.248003,-2.248003 0.749334,-0.749335 z"
       id="use3113"
       inkscape:connector-curvature="0"
       inkscape:transform-center-y="-2.5"
       inkscape:tile-x0="16"
       inkscape:tile-y0="22"
       sodipodi:nodetypes="ccccc" />
    <path
       style="fill:#cccccc;stroke:none"
       d="m 15.347298,32.207326 -0.749334,-0.749334 2.248003,-2.248004 0.749335,0.749335 z"
       id="use3115"
       inkscape:connector-curvature="0"
       inkscape:transform-center-y="-2.5"
       inkscape:tile-x0="16"
       inkscape:tile-y0="22"
       sodipodi:nodetypes="ccccc" />
    <path
       inkscape:tile-y0="22"
       inkscape:tile-x0="30"
       inkscape:tile-h="3"
       inkscape:tile-w="3"
       inkscape:tile-cy="26"
       inkscape:tile-cx="31.5"
       inkscape:transform-center-y="-2.0833333"
       transform="matrix(1.2967761,-1.2967761,0.93666823,0.93666823,-35.727939,35.680164)"
       d="M 32.444611,23 A 0.7223053,1 0 1 1 31,23 a 0.7223053,1 0 1 1 1.444611,0 z"
       sodipodi:ry="1"
       sodipodi:rx="0.7223053"
       sodipodi:cy="23"
       sodipodi:cx="31.722305"
       id="path3117"
       style="fill:#c83737;stroke:none"
       sodipodi:type="arc" />
    <use
       style="fill:#c83737"
       height="48"
       width="48"
       inkscape:transform-center-x="-2.4999998"
       id="use3122"
       transform="matrix(0,1,-1,0,46.795466,-10.855527)"
       xlink:href="#path3117"
       inkscape:tiled-clone-of="#path3117"
       y="0"
       x="0" />
    <use
       style="fill:#c83737"
       height="48"
       width="48"
       inkscape:transform-center-y="2.5"
       id="use3124"
       transform="matrix(-1,0,0,-1,57.710094,35.979391)"
       xlink:href="#path3117"
       inkscape:tiled-clone-of="#path3117"
       y="0"
       x="0" />
    <use
       style="fill:#c83737"
       height="48"
       width="48"
       inkscape:transform-center-x="2.5"
       id="use3126"
       transform="matrix(0,-1,1,0,10.865351,46.80529)"
       xlink:href="#path3117"
       inkscape:tiled-clone-of="#path3117"
       y="0"
       x="0" />
  </g>
</svg>

<svg xmlns="http://www.w3.org/2000/svg" xmlns:xlink="http://www.w3.org/1999/xlink" viewBox="0 0 48 48">
 <defs>
  <linearGradient id="linearGradient3239" x1="40.26" y1="7.737" x2="7.737" y2="40.26" gradientUnits="userSpaceOnUse">
   <stop style="stop-color:#ffa569;stop-opacity:1"/>
   <stop offset="1" style="stop-color:#f95;stop-opacity:1"/>
  </linearGradient>
 </defs>
 <g>
  <path d="m 36.31 5 c 5.859 4.062 9.688 10.831 9.688 18.5 c 0 12.426 -10.07 22.5 -22.5 22.5 c -7.669 0 -14.438 -3.828 -18.5 -9.688 c 1.037 1.822 2.306 3.499 3.781 4.969 c 4.085 3.712 9.514 5.969 15.469 5.969 c 12.703 0 23 -10.298 23 -23 c 0 -5.954 -2.256 -11.384 -5.969 -15.469 c -1.469 -1.475 -3.147 -2.744 -4.969 -3.781 z m 4.969 3.781 c 3.854 4.113 6.219 9.637 6.219 15.719 c 0 12.703 -10.297 23 -23 23 c -6.081 0 -11.606 -2.364 -15.719 -6.219 c 4.16 4.144 9.883 6.719 16.219 6.719 c 12.703 0 23 -10.298 23 -23 c 0 -6.335 -2.575 -12.06 -6.719 -16.219 z" style="opacity:0.05"/>
  <path d="m 41.28 8.781 c 3.712 4.085 5.969 9.514 5.969 15.469 c 0 12.703 -10.297 23 -23 23 c -5.954 0 -11.384 -2.256 -15.469 -5.969 c 4.113 3.854 9.637 6.219 15.719 6.219 c 12.703 0 23 -10.298 23 -23 c 0 -6.081 -2.364 -11.606 -6.219 -15.719 z" style="opacity:0.1"/>
  <path d="m 31.25 2.375 c 8.615 3.154 14.75 11.417 14.75 21.13 c 0 12.426 -10.07 22.5 -22.5 22.5 c -9.708 0 -17.971 -6.135 -21.12 -14.75 a 23 23 0 0 0 44.875 -7 a 23 23 0 0 0 -16 -21.875 z" style="opacity:0.2"/>
 </g>
 <g transform="matrix(0.70710678,-0.70710678,0.70710678,0.70710678,-9.9411255,24)" style="fill:#f95">
  <path d="M 24,1 C 36.703,1 47,11.297 47,24 47,36.703 36.703,47 24,47 11.297,47 1,36.703 1,24 1,11.297 11.297,1 24,1 z" style="fill:url(#linearGradient3239);fill-opacity:1"/>
 </g>
 <g>
  <path d="m 40.03 7.531 c 3.712 4.084 5.969 9.514 5.969 15.469 0 12.703 -10.297 23 -23 23 c -5.954 0 -11.384 -2.256 -15.469 -5.969 4.178 4.291 10.01 6.969 16.469 6.969 c 12.703 0 23 -10.298 23 -23 0 -6.462 -2.677 -12.291 -6.969 -16.469 z" style="opacity:0.1"/>
 </g>
 <path d="m 29.09 13 c -3.534 0.022 -7.409 2.128 -10.688 5.406 c -5.245 5.245 -7.496 12 -3 16.5 c 2.248 2.248 6 2.998 8.25 0.75 c 2.248 -2.248 0.785 -4.068 1.5 -6 c 0.388 -1.048 0.71 -2.21 1.5 -3 c 0.79 -0.79 1.952 -1.112 3 -1.5 c 1.932 -0.715 3.752 0.748 6 -1.5 c 2.248 -2.248 1.498 -6 -0.75 -8.25 c -1.686 -1.686 -3.692 -2.419 -5.813 -2.406 z" style="fill:#000;opacity:0.1;stroke:none"/>
 <g>
  <path d="m 17.408 17.408 c -5.245 5.245 -7.493 11.989 -2.997 16.485 2.248 2.248 5.995 2.997 8.243 0.749 2.248 -2.248 0.784 -4.063 1.499 -5.995 0.388 -1.048 0.709 -2.207 1.499 -2.997 0.79 -0.79 1.95 -1.111 2.997 -1.499 1.932 -0.715 3.747 0.749 5.995 -1.499 2.248 -2.248 1.499 -5.995 -0.749 -8.243 c -4.496 -4.496 -11.24 -2.248 -16.485 2.997 z" style="fill:#dbe2e3;stroke:none"/>
  <path transform="matrix(0.79616799,-0.79616799,0.74377525,0.74377525,-15.48964,24.037759)" d="m 22 25.718 a 4 4.282 0 1 1 -8 0 4 4.282 0 1 1 8 0 z" style="fill:#374548;stroke:none"/>
  <path d="m 22 25.718 a 4 4.282 0 1 1 -8 0 4 4.282 0 1 1 8 0 z" transform="matrix(0.79616799,-0.79616799,0.74377525,0.74377525,-4.6242884,13.172408)" style="fill:#374548;stroke:none"/>
  <path d="m 21.904 23.403 1.499 -1.499 c 0.415 -0.415 1.084 -0.415 1.499 0 0.415 0.415 0.415 1.084 0 1.499 l -1.499 1.499 c -0.415 0.415 -1.084 0.415 -1.499 0 -0.415 -0.415 -0.415 -1.084 0 -1.499 z" style="fill:#374548;stroke:none"/>
  <path d="m 14.598 26.21 0.749 -0.749 2.248 2.248 -0.749 0.749 z" style="fill:#ccc;stroke:none"/>
  <path d="m 20.593 25.463 0.749 0.749 -2.248 2.248 -0.749 -0.749 z" style="fill:#ccc;stroke:none"/>
  <path d="m 21.342 31.458 -0.749 0.749 -2.248 -2.248 0.749 -0.749 z" style="fill:#ccc;stroke:none"/>
  <path d="m 15.347 32.21 -0.749 -0.749 2.248 -2.248 0.749 0.749 z" style="fill:#ccc;stroke:none"/>
  <path transform="matrix(1.2967761,-1.2967761,0.93666823,0.93666823,-35.727939,35.680164)" d="M 32.445 23 A 0.722 1 0 1 1 31 23 a 0.722 1 0 1 1 1.445 0 z" id="path3117" style="fill:#c83737;stroke:none"/>
  <use height="48" width="48" transform="matrix(0,1,-1,0,46.795466,-10.855527)" xlink:href="#path3117"/>
  <use height="48" width="48" transform="matrix(-1,0,0,-1,57.710094,35.979391)" xlink:href="#path3117"/>
  <use height="48" width="48" transform="matrix(0,-1,1,0,10.865351,46.80529)" xlink:href="#path3117"/>
 </g>
</svg>
